X:1
T:Title
%%score 1 2 3
L:1/8
M:3/2
K:C
V:1 treble-8 nm="Part_1"
V:2 treble-8 nm="Part_2"
V:3 bass nm="Part_3"
V:1
 A4 _B4 A2 G2 | c4 d6 c2 | _BA B2 A2 F2 G4 | A4 z4 c4 | d2 e2 f6 e2 | d4 c2 _B2 d4 | %6
 _B2 A2 G2 G2 F2 E2 | G4 z4 z4 | _B4 B4 B4 | A2 _B4 G2 F2 E2 | G4 z4 _B4 | d4 c6 A2 | %12
 _B2 A2 G2 G2 F2 E2 | G8 z4 | _B4 c4 d4 | d4 _B4 A4 | G2 A4 F2 G2 _B2- | B2 c3 A A4 G2 | A12 || %19
 c4 d6 e2 | f4 e2 d2 f4 | c6 _B2 d4 | _B2 G2 A4 G4 | c4 c6 A2 | _B2 A2 G2 G2 F2 E2 | G8 z4 | %26
 _B4 G4 B4 | G4 A2 _B4 A2 | c2 _B2 G6 F2 | A4 z4 z4 | _B4 G4 B4 | G4 F2 G2 A2 _B2- | %32
 B2 c2 A2 F2 G2 FG | A12 |] %34
V:2
 E4 F4 E2 D2 | G4 A6 G2 | FE F2 E2 C2 D4 | E4 z4 G4 | A2 B2 c6 B2 | A4 G2 F2 A4 | %6
 F2 E2 D2 D2 C2 B,2 | D4 z4 z4 | F4 F4 F4 | E2 F4 D2 C2 B,2 | D4 z4 F4 | A4 G6 E2 | %12
 F2 E2 D2 D2 C2 B,2 | D8 z4 | F4 G4 A4 | A4 F4 E4 | D2 E4 C2 D2 F2- | F2 G3 E E4 D2 | E12 || %19
 G4 A6 B2 | c4 B2 A2 c4 | G6 F2 A4 | F2 D2 E4 D4 | G4 G6 E2 | F2 E2 D2 D2 C2 B,2 | D8 z4 | %26
 F4 D4 F4 | D4 E2 F4 E2 | G2 F2 D6 C2 | E4 z4 z4 | F4 D4 F4 | D4 C2 D2 E2 F2- | F2 G2 E2 C2 D2 CD | %33
 E12 |] %34
V:3
 A,,4 D,4 C,2 _B,,2 | A,,4 F,6 E,2 | D,4 C,2 A,,2 _B,,4 | A,,8 E,4 | G,4 F,2 A,4 G,2 | %5
 F,4 E,4 F,4 | D,4 _B,,2 G,,2 A,,4 | G,,4 _B,,4 B,,4 | D,8 _B,,4 | C,2 D,4 G,,2 A,,4 | G,,8 D,4 | %11
 F,4 C,2 D,6 | _B,,2 C,2 B,,2 G,,2 A,,4 | G,,4 _B,,4 C,4 | D,4 _E,4 D,4 | F,2 D,4 _B,,2 C,4 | %16
 _B,,2 C,2 A,,4 B,,4 | D,2 C,4 A,,2 _B,,4 | A,,12 || C,4 F,4 G,4 | F,2 A,2 G,2 E,2 F,4 | %21
 E,6 D,2 F,4 | D,2 _B,,2 C,4 G,,4 | E,4 C,2 E,4 F,2 | D,4 _B,,2 G,,2 A,,4 | G,,12 | %26
 D,4 _B,,4 G,,4 | _B,,4 C,2 B,,2 D,2 C,2- | C,2 D,2 _B,,4 B,,4 | A,,8 C,4 | _B,,6 G,,4 B,,2- | %31
 B,,2 G,,2 A,,2 =B,,2 C,2 D,2- | D,2 C,4 A,,2 _B,,4 | A,,12 |] %34

